X: 14916
T: Gathering, The
R: jig
M: 6/8
K: Adorian
"Am"EGA ed/e/d|cBA dcB|"C"cEB EAE|"D"A/B/AG AGF|
"Am"EGA ed/e/d|cBA Bcd|"C"ecg fed|"D"e/f/ed e2z|
"Am"EGA ed/e/d|cBA dcB|"C"cEE BEE|"D"A/B/AG AGF|
"Am"EGA ed/e/d|cBA Bcd|"C"ecg fed|"D"e/f/ed e2z|

